; HEADER_BLOCK_START
; generated by Creality_Print V6.0.0.1078 on 2025-01-07 at 13:55:04
; total layer number: 275
; filament_density: 1.24
; filament_diameter: 1.75
; max_z_height: 50.00
; HEADER_BLOCK_END

; THUMBNAIL_BLOCK_START

;
; THUMBNAIL_BLOCK_END

; THUMBNAIL_BLOCK_START

;
; THUMBNAIL_BLOCK_END

; external perimeters extrusion width = 0.42mm
; perimeters extrusion width = 0.45mm
; infill extrusion width = 0.45mm
; solid infill extrusion width = 0.42mm
; top infill extrusion width = 0.42mm
; support material extrusion width = 0.42mm
; first layer extrusion width = 0.50mm

; EXECUTABLE_BLOCK_START
EXCLUDE_OBJECT_DEFINE NAME=Terrific_Bruticus.stl_id_0_copy_0 CENTER=150,150 POLYGON=[[90,102],[210,102],[210,198],[90,198],[90,102]]
M73 P0 R108
M106 S0
M106 P2 S0
;TYPE:Custom
M140 S0
M104 S0 
START_PRINT EXTRUDER_TEMP=220 BED_TEMP=50
G90
G21
M83 ; use relative distances for extrusion
; filament start gcode
G1 E-.6 F2400
M106 S0
;LAYER_CHANGE
;Z:0.2
;HEIGHT:0.2
;BEFORE_LAYER_CHANGE
;0.2
G92 E0

;AFTER_LAYER_CHANGE
;0.2
;_SET_FAN_SPEED_CHANGING_LAYER
SET_VELOCITY_LIMIT ACCEL=1000 ACCEL_TO_DECEL=1000
SET_VELOCITY_LIMIT SQUARE_CORNER_VELOCITY=20
; printing object Terrific Bruticus.stl id:0 copy 0
EXCLUDE_OBJECT_START NAME=Terrific_Bruticus.stl_id_0_copy_0
G1 Z.4 F30000
G1 X89.65 Y172.078
G1 Z.2
G1 E.6 F2400
;TYPE:Support
;WIDTH:0.5
G1 F3000
G1 X87.643 Y172.078 E.07247
G1 X87.643 Y127.922 E1.5943
G1 X89.65 Y127.922 E.07247
G1 X89.65 Y172.009 E1.59182
G1 X89.239 Y128.333 F30000
G1 F3000
G1 X89.239 Y171.667 E1.56459
G1 X88.054 Y171.667 E.04276
G1 X88.054 Y128.333 E1.56459
G1 X89.239 Y128.333 E.04276
G1 E-.6 F2400
;WIPE_START
G1 F3000
G1 X88.054 Y128.333
G1 X88.054 Y129.149
;WIPE_END
G1 X95.269 Y131.641 Z.6 F30000
G1 X212.357 Y172.078 Z.6
G1 Z.2
G1 E.6 F2400
G1 F3000
G1 X210.35 Y172.078 E.07247
G1 X210.35 Y127.922 E1.5943
G1 X212.357 Y127.922 E.07247
G1 X212.357 Y172.009 E1.59182
G1 X210.761 Y128.333 F30000
G1 F3000
G1 X211.946 Y128.333 E.04276
G1 X211.946 Y171.667 E1.56459
G1 X210.761 Y171.667 E.04276
G1 X210.761 Y128.333 E1.56459
G1 E-.6 F2400
;WIPE_START
G1 F3000
G1 X210.761 Y130.333
;WIPE_END
G1 X215.356 Y128.333 Z.6 F30000
G1 Z.2
G1 E.6 F2400
;TYPE:Brim
G1 F3000
G1 X215.356 Y197.992 E2.5151
G1 X215.308 Y198.708 E.02589
G1 X215.165 Y199.402 E.02561
G1 X214.93 Y200.074 E.02568
G1 X214.7 Y200.544 E.0189
G1 X214.267 Y201.226 E.02917
G1 X213.806 Y201.764 E.02558
G1 X213.277 Y202.236 E.02561
G1 X212.689 Y202.632 E.02561
G1 X212.051 Y202.946 E.02566
G1 X211.507 Y203.136 E.02081
G1 X210.759 Y203.301 E.02763
G1 X209.992 Y203.356 E.02779
G1 X90.008 Y203.356 E4.33214
G1 X89.292 Y203.308 E.02589
G1 X88.598 Y203.165 E.02561
G1 X87.926 Y202.93 E.02568
G1 X87.456 Y202.7 E.0189
G1 X86.774 Y202.267 E.02917
G1 X86.236 Y201.806 E.02558
G1 X85.764 Y201.277 E.02561
G1 X85.368 Y200.689 E.02561
G1 X85.054 Y200.051 E.02566
G1 X84.864 Y199.507 E.02081
G1 X84.699 Y198.759 E.02763
G1 X84.644 Y197.992 E.02779
G1 X84.644 Y102.008 E3.4656
G1 X84.692 Y101.292 E.02589
G1 X84.835 Y100.598 E.02561
G1 X85.07 Y99.926 E.02568
G1 X85.3 Y99.456 E.0189
G1 X85.733 Y98.774 E.02917
G1 X86.194 Y98.236 E.02558
G1 X86.723 Y97.764 E.02561
G1 X87.311 Y97.368 E.02561
G1 X87.949 Y97.054 E.02566
G1 X88.493 Y96.864 E.02081
G1 X89.241 Y96.699 E.02763
G1 X90.008 Y96.644 E.02779
G1 X209.992 Y96.644 E4.33214
G1 X210.708 Y96.692 E.02589
G1 X211.402 Y96.835 E.02561
G1 X212.073 Y97.07 E.02565
G1 X212.627 Y97.346 E.02236
G1 X213.225 Y97.732 E.02571
G1 X213.764 Y98.194 E.02561
G1 X214.236 Y98.723 E.02561
G1 X214.632 Y99.311 E.02561
G1 X214.946 Y99.949 E.02566
G1 X215.136 Y100.493 E.02081
G1 X215.301 Y101.241 E.02763
G1 X215.356 Y102.008 E.02779
G1 X215.356 Y128.293 E.94905
G1 X214.899 Y128.293 F30000
G1 F3000
G1 X214.899 Y197.972 E2.51582
G1 X214.852 Y198.655 E.02471
G1 X214.721 Y199.289 E.02337
G1 X214.504 Y199.904 E.02355
G1 X214.296 Y200.326 E.017
G1 X213.892 Y200.961 E.02716
G1 X213.472 Y201.45 E.02326
G1 X213.003 Y201.868 E.02271
G1 X212.45 Y202.24 E.02404
G1 X211.882 Y202.52 E.02289
G1 X211.389 Y202.693 E.01883
G1 X210.683 Y202.848 E.02611
G1 X209.97 Y202.899 E.02581
G1 X90.028 Y202.899 E4.33064
G1 X89.345 Y202.852 E.02471
G1 X88.711 Y202.721 E.02337
G1 X88.096 Y202.504 E.02355
G1 X87.674 Y202.296 E.017
G1 X87.039 Y201.892 E.02716
G1 X86.55 Y201.472 E.02326
G1 X86.132 Y201.003 E.02271
G1 X85.76 Y200.45 E.02404
G1 X85.48 Y199.882 E.02289
G1 X85.307 Y199.389 E.01883
G1 X85.152 Y198.683 E.02611
G1 X85.101 Y197.97 E.02581
G1 X85.101 Y102.028 E3.4641
G1 X85.148 Y101.345 E.02471
G1 X85.279 Y100.711 E.02337
G1 X85.496 Y100.096 E.02355
G1 X85.704 Y99.674 E.017
G1 X86.108 Y99.039 E.02716
G1 X86.528 Y98.55 E.02326
G1 X86.997 Y98.132 E.02271
G1 X87.55 Y97.76 E.02404
G1 X88.118 Y97.48 E.02289
G1 X88.611 Y97.307 E.01883
G1 X89.317 Y97.152 E.02611
G1 X90.03 Y97.101 E.02581
G1 X209.981 Y97.101 E4.33098
G1 X210.655 Y97.148 E.02438
G1 X211.289 Y97.279 E.02337
G1 X211.886 Y97.489 E.02286
G1 X212.407 Y97.748 E.02099
G1 X212.944 Y98.095 E.02308
G1 X213.45 Y98.528 E.02404
G1 X213.868 Y98.997 E.02271
G1 X214.231 Y99.534 E.02337
G1 X214.527 Y100.134 E.02416
G1 X214.697 Y100.626 E.01881
G1 X214.845 Y101.297 E.02481
G1 X214.899 Y102.03 E.02653
G1 X214.899 Y128.253 E.94683
G1 X214.442 Y128.253 F30000
G1 F3000
G1 X214.442 Y197.952 E2.51653
G1 X214.396 Y198.602 E.02353
G1 X214.276 Y199.175 E.02113
G1 X214.078 Y199.734 E.02142
G1 X213.893 Y200.109 E.01509
G1 X213.518 Y200.695 E.02515
G1 X213.151 Y201.122 E.02029
G1 X212.729 Y201.5 E.02048
G1 X212.212 Y201.848 E.02247
G1 X211.712 Y202.094 E.02015
G1 X211.272 Y202.249 E.01684
G1 X210.627 Y202.392 E.02385
G1 X209.949 Y202.442 E.02456
G1 X90.048 Y202.442 E4.32913
G1 X89.398 Y202.396 E.02353
G1 X88.825 Y202.276 E.02113
G1 X88.266 Y202.078 E.02142
G1 X87.891 Y201.893 E.01509
G1 X87.305 Y201.518 E.02515
G1 X86.878 Y201.151 E.02029
G1 X86.5 Y200.729 E.02048
G1 X86.152 Y200.212 E.02247
G1 X85.906 Y199.712 E.02015
G1 X85.751 Y199.272 E.01684
G1 X85.608 Y198.627 E.02385
G1 X85.558 Y197.949 E.02456
G1 X85.558 Y102.048 E3.46259
G1 X85.604 Y101.398 E.02353
G1 X85.724 Y100.825 E.02113
G1 X85.922 Y100.266 E.02142
G1 X86.107 Y99.891 E.01509
G1 X86.482 Y99.305 E.02515
G1 X86.849 Y98.878 E.02029
G1 X87.271 Y98.5 E.02048
G1 X87.788 Y98.152 E.02247
G1 X88.288 Y97.906 E.02015
G1 X88.728 Y97.751 E.01684
G1 X89.373 Y97.608 E.02385
G1 X90.051 Y97.558 E.02456
G1 X209.961 Y97.558 E4.32946
G1 X210.602 Y97.604 E.02319
G1 X211.157 Y97.719 E.02049
G1 X211.7 Y97.908 E.02074
G1 X212.186 Y98.15 E.01963
G1 X212.662 Y98.457 E.02044
G1 X213.135 Y98.862 E.02247
G1 X213.511 Y99.286 E.02048
G1 X213.829 Y99.756 E.02048
G1 X214.107 Y100.318 E.02265
G1 X214.258 Y100.758 E.0168
G1 X214.39 Y101.354 E.02202
G1 X214.442 Y102.052 E.02527
G1 X214.442 Y128.213 E.94459
G1 E-.6 F2400
;WIPE_START
G1 F3000
G1 X214.442 Y130.213
;WIPE_END
G1 X214.334 Y137.845 Z.6 F30000
G1 X213.835 Y173.045 Z.6
G1 Z.2
G1 E.6 F2400
G1 F3000
G1 X213.943 Y173.083 E.00413
G1 X213.985 Y173.182 E.00388
G1 X213.985 Y197.931 E.89359
G1 X213.943 Y198.529 E.02166
G1 X213.832 Y199.06 E.01956
G1 X213.659 Y199.548 E.01871
G1 X213.498 Y199.877 E.01323
G1 X213.155 Y200.414 E.023
G1 X212.818 Y200.807 E.01871
G1 X212.439 Y201.144 E.01828
G1 X211.974 Y201.455 E.02021
G1 X211.542 Y201.669 E.01742
G1 X211.154 Y201.806 E.01485
G1 X210.57 Y201.937 E.0216
G1 X209.927 Y201.985 E.02329
G1 X90.069 Y201.985 E4.32758
G1 X89.471 Y201.943 E.02166
G1 X88.94 Y201.832 E.01956
G1 X88.452 Y201.659 E.01871
G1 X88.123 Y201.498 E.01323
G1 X87.571 Y201.144 E.02369
G1 X87.193 Y200.818 E.01802
G1 X86.868 Y200.454 E.0176
G1 X86.554 Y199.99 E.02022
G1 X86.331 Y199.542 E.01809
G1 X86.194 Y199.154 E.01485
G1 X86.063 Y198.57 E.0216
G1 X86.015 Y197.927 E.02329
G1 X86.015 Y173.357 E.88713
G1 X86.063 Y173.253 E.00413
G1 X86.172 Y173.221 E.00413
G1 X86.248 Y173.259 E.00303
G1 X86.494 Y173.499 E.01244
G1 X86.7 Y173.644 E.00909
G1 X87.085 Y173.818 E.01526
G1 X87.477 Y173.895 E.01441
G1 X88.164 Y173.899 E.02481
G1 X88.268 Y173.947 E.00413
G1 X88.3 Y174.036 E.00342
G1 X88.3 Y197.973 E.86426
G1 X88.339 Y198.31 E.01225
G1 X88.398 Y198.527 E.00814
G1 X88.512 Y198.783 E.0101
G1 X88.698 Y199.061 E.01209
G1 X88.975 Y199.331 E.01395
G1 X89.08 Y199.405 E.00464
G1 X89.364 Y199.555 E.01158
G1 X89.647 Y199.647 E.01075
G1 X90.032 Y199.7 E.01404
G1 X209.973 Y199.7 E4.33057
G1 X210.308 Y199.661 E.01218
G1 X210.602 Y199.573 E.01107
G1 X210.867 Y199.439 E.01073
G1 X211.153 Y199.221 E.01298
G1 X211.329 Y199.027 E.00948
G1 X211.404 Y198.921 E.00467
G1 X211.595 Y198.54 E.01539
G1 X211.647 Y198.356 E.00691
G1 X211.7 Y197.968 E.01415
G1 X211.7 Y174.038 E.86401
G1 X211.747 Y173.934 E.00413
G1 X211.835 Y173.901 E.00339
G1 X212.446 Y173.893 E.02205
G1 X212.576 Y173.875 E.00476
G1 X213.007 Y173.742 E.01628
G1 X213.215 Y173.632 E.00849
G1 X213.397 Y173.503 E.00806
G1 X213.61 Y173.281 E.0111
G1 X213.736 Y173.103 E.00789
G1 X213.8 Y173.065 E.00269
G1 E-.6 F2400
;WIPE_START
G1 F3000
G1 X213.943 Y173.083
G1 X213.985 Y173.182
G1 X213.985 Y174.931
;WIPE_END
G1 X213.447 Y174.086 Z.6 F30000
G1 Z.2
G1 E.6 F2400
G1 F3000
G1 X213.528 Y174.211 E.0054
G1 X213.528 Y197.91 E.85568
G1 X213.49 Y198.457 E.01978
G1 X213.388 Y198.944 E.01799
G1 X213.24 Y199.363 E.01602
G1 X213.102 Y199.646 E.01136
G1 X212.793 Y200.132 E.02083
G1 X212.484 Y200.492 E.01711
G1 X212.151 Y200.787 E.01605
G1 X211.737 Y201.063 E.01797
G1 X211.371 Y201.243 E.01475
G1 X211.035 Y201.364 E.01287
G1 X210.513 Y201.481 E.01934
G1 X209.905 Y201.528 E.02202
G1 X90.09 Y201.528 E4.32603
M73 P0 R107
G1 X89.543 Y201.49 E.01978
M73 P0 R107
G1 X89.056 Y201.388 E.01799
G1 X88.637 Y201.24 E.01602
G1 X88.355 Y201.102 E.01134
G1 X87.837 Y200.77 E.02221
G1 X87.521 Y200.497 E.0151
G1 X87.235 Y200.179 E.01541
G1 X86.955 Y199.767 E.01799
G1 X86.757 Y199.37 E.01603
G1 X86.636 Y199.035 E.01285
G1 X86.519 Y198.513 E.01934
G1 X86.472 Y197.905 E.02202
G1 X86.472 Y174.255 E.85389
G1 X86.52 Y174.151 E.00413
G1 X86.66 Y174.128 E.00515
G1 X87.009 Y174.269 E.01358
G1 X87.377 Y174.342 E.01355
G1 X87.711 Y174.354 E.01205
G1 X87.813 Y174.405 E.00413
G1 X87.843 Y174.491 E.00327
G1 X87.847 Y198.032 E.85
G1 X87.9 Y198.436 E.01468
G1 X87.984 Y198.72 E.01071
G1 X88.137 Y199.044 E.01293
G1 X88.388 Y199.397 E.01566
G1 X88.649 Y199.651 E.01314
G1 X88.873 Y199.812 E.00996
G1 X89.231 Y199.992 E.01447
G1 X89.595 Y200.101 E.01372
G1 X90.041 Y200.157 E.01622
G1 X209.964 Y200.157 E4.32995
G1 X210.449 Y200.096 E.01765
G1 X210.722 Y200.014 E.01028
G1 X211.064 Y199.851 E.01369
G1 X211.423 Y199.59 E.01602
G1 X211.662 Y199.339 E.01251
G1 X211.816 Y199.119 E.0097
G1 X212.038 Y198.653 E.01863
G1 X212.101 Y198.41 E.00907
G1 X212.151 Y198.039 E.01352
G1 X212.157 Y174.489 E.85028
G1 X212.205 Y174.385 E.00413
G1 X212.289 Y174.352 E.00329
G1 X212.515 Y174.345 E.00813
G1 X212.719 Y174.309 E.00749
G1 X213.132 Y174.182 E.01561
G1 X213.332 Y174.087 E.008
G1 X213.407 Y174.086 E.00269
G1 X213.015 Y174.754 F30000
G1 F3000
G1 X213.071 Y174.865 E.00447
G1 X213.071 Y197.89 E.83133
G1 X213.037 Y198.384 E.01791
G1 X212.944 Y198.829 E.01641
G1 X212.82 Y199.178 E.01337
G1 X212.706 Y199.415 E.0095
G1 X212.43 Y199.851 E.01864
G1 X212.164 Y200.163 E.01481
G1 X211.864 Y200.429 E.01446
G1 X211.5 Y200.67 E.01575
G1 X211.199 Y200.818 E.01213
G1 X210.915 Y200.921 E.01089
G1 X210.454 Y201.026 E.01707
G1 X209.882 Y201.071 E.02073
G1 X90.11 Y201.071 E4.32446
G1 X89.616 Y201.037 E.01791
G1 X89.171 Y200.944 E.01641
G1 X88.822 Y200.82 E.01337
G1 X88.587 Y200.707 E.00943
G1 X88.104 Y200.397 E.02071
G1 X87.835 Y200.163 E.01285
G1 X87.602 Y199.904 E.0126
G1 X87.346 Y199.527 E.01643
G1 X87.181 Y199.198 E.01331
G1 X87.079 Y198.915 E.01085
G1 X86.974 Y198.454 E.01707
G1 X86.929 Y197.882 E.02073
G1 X86.929 Y174.886 E.83029
G1 X86.977 Y174.782 E.00413
G1 X87.093 Y174.751 E.00433
G1 X87.276 Y174.787 E.00673
G1 X87.368 Y174.854 E.00413
G1 X87.386 Y174.922 E.00252
G1 X87.395 Y198.1 E.83687
G1 X87.464 Y198.572 E.01723
G1 X87.574 Y198.923 E.01326
G1 X87.77 Y199.316 E.01588
G1 X88.077 Y199.732 E.01865
G1 X88.389 Y200.027 E.01551
G1 X88.675 Y200.224 E.01252
G1 X89.109 Y200.433 E.01741
G1 X89.548 Y200.556 E.01646
G1 X90.049 Y200.614 E.0182
G1 X209.956 Y200.614 E4.32937
G1 X210.496 Y200.55 E.01963
G1 X210.927 Y200.423 E.01622
G1 X211.343 Y200.214 E.01682
G1 X211.684 Y199.965 E.01522
G1 X211.986 Y199.662 E.01545
G1 X212.233 Y199.306 E.01567
G1 X212.446 Y198.86 E.01783
G1 X212.542 Y198.529 E.01245
G1 X212.603 Y198.109 E.01532
G1 X212.614 Y174.907 E.83775
G1 X212.662 Y174.803 E.00413
G1 X212.72 Y174.773 E.00237
G1 X212.903 Y174.731 E.00678
G1 X212.976 Y174.746 E.00269
G1 E-.6 F2400
;WIPE_START
G1 F3000
G1 X213.071 Y174.865
G1 X213.071 Y176.713
;WIPE_END
G1 X212.605 Y173.393 Z.6 F30000
G1 Z.2
G1 E.6 F2400
G1 F3000
G1 X212.449 Y173.436 E.00584
G1 X211.38 Y173.449 E.03861
G1 X211.276 Y173.497 E.00413
G1 X211.243 Y173.586 E.00344
G1 X211.243 Y197.977 E.88065
G1 X211.194 Y198.294 E.01156
G1 X211.157 Y198.412 E.00447
G1 X210.997 Y198.713 E.01232
G1 X210.806 Y198.923 E.01023
G1 X210.597 Y199.071 E.00926
G1 X210.4 Y199.163 E.00786
G1 X210.258 Y199.206 E.00534
G1 X209.981 Y199.243 E.01012
G1 X90.023 Y199.243 E4.33119
G1 X89.706 Y199.194 E.01156
G1 X89.588 Y199.157 E.00447
G1 X89.287 Y198.997 E.01232
G1 X89.077 Y198.806 E.01023
G1 X88.929 Y198.597 E.00926
G1 X88.837 Y198.4 E.00786
G1 X88.794 Y198.258 E.00534
G1 X88.757 Y197.981 E.01012
G1 X88.757 Y173.581 E.88097
G1 X88.71 Y173.477 E.00413
G1 X88.621 Y173.444 E.00342
G1 X87.466 Y173.438 E.0417
G1 X87.178 Y173.371 E.01066
G1 X86.962 Y173.27 E.00864
G1 X86.809 Y173.168 E.00663
G1 X86.622 Y172.996 E.00917
G1 X86.452 Y172.76 E.01051
G1 X86.319 Y172.438 E.01256
G1 X86.272 Y172.148 E.01061
G1 X86.272 Y127.852 E1.59936
M73 P1 R107
G1 X86.319 Y127.562 E.01061
M73 P1 R107
G1 X86.453 Y127.238 E.01265
G1 X86.553 Y127.088 E.00652
G1 X86.725 Y126.901 E.00917
G1 X86.964 Y126.729 E.01062
G1 X87.179 Y126.629 E.00856
G1 X87.462 Y126.562 E.01053
G1 X88.622 Y126.551 E.04185
G1 X88.725 Y126.502 E.00413
G1 X88.757 Y126.414 E.0034
G1 X88.757 Y102.023 E.88065
G1 X88.806 Y101.705 E.01162
G1 X88.878 Y101.497 E.00794
G1 X88.944 Y101.379 E.00489
G1 X89.196 Y101.075 E.01425
G1 X89.403 Y100.929 E.00914
G1 X89.6 Y100.837 E.00786
G1 X89.742 Y100.794 E.00534
G1 X90.019 Y100.757 E.01012
G1 X209.977 Y100.757 E4.33119
G1 X210.294 Y100.806 E.01156
G1 X210.412 Y100.843 E.00447
G1 X210.713 Y101.003 E.01232
G1 X210.923 Y101.194 E.01023
G1 X211.071 Y101.403 E.00926
G1 X211.163 Y101.6 E.00786
G1 X211.206 Y101.742 E.00534
G1 X211.243 Y102.019 E.01012
G1 X211.243 Y126.414 E.88078
G1 X211.29 Y126.518 E.00413
G1 X211.378 Y126.551 E.0034
G1 X212.538 Y126.562 E.04185
G1 X212.821 Y126.629 E.01053
G1 X213.039 Y126.73 E.00865
G1 X213.191 Y126.832 E.00663
G1 X213.378 Y127.004 E.00917
G1 X213.548 Y127.24 E.01051
G1 X213.681 Y127.562 E.01256
G1 X213.728 Y127.852 E.01061
G1 X213.728 Y171.984 E1.59345
G1 X213.648 Y172.385 E.01475
G1 X213.59 Y172.529 E.00562
G1 X213.499 Y172.681 E.0064
G1 X213.347 Y172.85 E.00817
G1 X213.272 Y172.974 E.00522
G1 X213.132 Y173.131 E.00763
G1 X213.007 Y173.224 E.00563
G1 X212.78 Y173.345 E.00927
G1 X212.644 Y173.383 E.00512
G1 X212.543 Y172.946 F30000
G1 F3000
G1 X212.342 Y172.992 E.00746
G1 X210.923 Y172.992 E.05123
G1 X210.819 Y173.04 E.00413
G1 X210.786 Y173.129 E.00344
G1 X210.786 Y197.988 E.89753
G1 X210.743 Y198.218 E.00845
G1 X210.656 Y198.409 E.00759
G1 X210.527 Y198.561 E.0072
G1 X210.414 Y198.652 E.00525
G1 X210.197 Y198.754 E.00865
G1 X209.989 Y198.786 E.00758
G1 X90.012 Y198.786 E4.33189
G1 X89.782 Y198.743 E.00845
G1 X89.591 Y198.656 E.00759
G1 X89.439 Y198.527 E.0072
G1 X89.348 Y198.414 E.00525
G1 X89.246 Y198.197 E.00865
G1 X89.214 Y197.989 E.00758
G1 X89.214 Y173.122 E.89787
G1 X89.167 Y173.018 E.00413
G1 X89.077 Y172.985 E.00347
G1 X87.564 Y172.992 E.05461
G1 X87.361 Y172.952 E.00749
G1 X87.224 Y172.896 E.00533
G1 X87.054 Y172.782 E.0074
G1 X86.939 Y172.667 E.00586
G1 X86.825 Y172.497 E.0074
G1 X86.769 Y172.36 E.00534
G1 X86.729 Y172.159 E.0074
G1 X86.729 Y127.841 E1.60016
G1 X86.769 Y127.64 E.0074
G1 X86.825 Y127.503 E.00534
G1 X86.939 Y127.333 E.0074
G1 X87.054 Y127.218 E.00586
